!!!!SEGMENT: pl-wtm--r-1400--003_stefani-jozef--krakowiak.krn
!!!cenid: 18xx:1873
!!!COM: Stefani, Józef
!!!COM-rismID: pe30024097
!!!CDT: 1800/04/16-1876/03/19
!!!CNT: Polish
!!!OTL: Krakowiak
!!!PDT:
!!!AGN: Secular; Krakowiak
!!!SMS-siglum: PL-Wtm
!!!SMS-shelfmark: R 1400
!!!SMS-shelfwork: 003 W
!!!SMS-variant:
!!!SMS-altvar:
!!!NIFC-rismSourceID: 1001117879
!!!NIFC-islandoraID: pl-wtm:25445
!!!URL-pdf-islandora: https://repozytorium.nifc.pl/islandora/object/pl-wtm%3A25445/datastream/PDF/view
!!!URL-scan: https://polish.musicsources.pl/pl/lokalizacje/galeria/rekopisy/6230 @EN{Scan on Polish Music Sources Website} @PL{Skany w portalu Dziedzictwo Muzyki Polskiej w otwartym dostępie}
!!!ONB-nifc: UWAGA: No. 3.
!!!AIN: 2 piano
!!!key:
**kern	**kern	**dynam
*part2	*part1	*part1
*staff2	*staff1	*
*Ipiano	*Ipiano	*
*I"[Piano]	*I"[Piano]	*
*I'[pf]	*I'[pf]	*
*clefF4	*clefG2	*
*k[f#c#]	*k[f#c#]	*
*D:	*D:	*
*M2/4	*M2/4	*
*>[A,B,B,C]	*>[A,B,B,C]	*
=1	=1	=1
*>A	*>A	*
!	!LO:TX:i:a:t=No 3.	!
!	!LO:TX:i:a:t=Krakowiak	!
!	!LO:TX:a:t=P:problem=all\right&colon; global	!
4A 4D\	2r	.
4A 4D\	.	.
=2	=2	=2
4A 4D\	2r	.
4A 4D\	.	.
=3	=3	=3
!	!	!LO:DY:b:rj
4A 4F# 4D\	8a'>\L	mf
.	8ff#'>\J	.
.	(<8qff#/	.
4A 4G 4D\	8ee\L)	.
.	8cc#'>\J	.
=4	=4	=4
4A 4F# 4D\	(>8.dd\L	.
.	32cc#\LL	.
.	32b\JJJ	.
4A 4F# 4D\	4a/)	.
=5	=5	=5
4A 4F# 4D\	8a'>\L	.
.	8ff#'>\J	.
.	(<8qff#/	.
4A 4G 4D\	8ee\L)	.
.	8cc#'>\J	.
=6	=6	=6
4A 4F# 4D\	(>8.dd\L	.
.	32cc#\LL	.
.	32b\JJJ	.
4A 4F# 4D\	4a/)	.
!!LO:LB:g=original
=7	=7	=7
4A 4F# 4D\	8a'>\L	.
.	8ff#'>\J	.
.	(<8qff#/	.
4A 4G 4D\	8ee\L)	.
.	8cc#'>\J	.
=8	=8	=8
4A 4F# 4D\	(>8.dd\L	.
.	32cc#\LL	.
.	32b\JJJ	.
4A 4F# 4D\	4a/)	.
=9	=9	=9
4A 4F# 4D\	8a'>\L	.
.	8ff#'>\J	.
.	8qff#/	.
4A 4G 4D\	8ee\L	.
.	8cc#\J	.
=10	=10	=10
4A 4F# 4D\	4dd\	.
4A 4F# 4D\	4dd\	.
=11	=11	=11
!	!	!LO:DY:b:rj
8C#/	8ee\	f
4AA/	4aa^< 4cc#\	.
8C#/	8gg 8ee\	.
=12	=12	=12
8DD/	(>16ff#\LL	.
.	16gg\	.
8AL 8F# 8D\	16ff#\	.
.	16ee\JJ	.
8A 8F# 8D\	8dd\L)	.
8AJ 8F# 8D\	8ff#\J	.
!!LO:LB:g=original
=13	=13	=13
.	(<8qdd#X/	.
8C#\L	8ee\L)	.
8AJ 8G 8E\	8a\	.
8AA\L	8b\	.
8AJ 8G 8E\	8cc#\J	.
=14	=14	=14
8DD/	(>16dd\LL	.
.	16cc#\	.
8AL 8F# 8D\	16dd\	.
.	16ee\JJ	.
8A 8F# 8D\	8ff#\L)	.
8AJ 8F# 8D\	8dd'>\J	.
=15	=15	=15
8C#/	8ee\	.
4AA/	4aa^< 4cc#\	.
8C#/	8gg 8ee\	.
=16	=16	=16
8DD/	(>16ff#\LL	.
.	16gg\	.
8AL 8F# 8D\	16ff#\	.
.	16ee\JJ	.
8A 8F# 8D\	8dd\L)	.
8AJ 8F# 8D\	8ff#'>\J	.
=17	=17	=17
.	(<8qdd#X/	.
8C#\L	8ee\L)	.
8AJ 8G 8E\	8a'>\	.
8AA\L	8b'>\	.
8AJ 8G 8E\	8cc#'>\J	.
!!LO:LB:g=original
=18	=18	=18
4A 4F# 4D\	8dd\L	.
.	16ee\L	.
.	16dd\JJ	.
4A 4F# 4D\	8ccn/L	.
.	8a/J	.
=19!|:	=19!|:	=19!|:
*>B	*>B	*
!LO:TX:t=P:problem=mixed beam	!	!LO:DY:b:rj
8GG/L	8bL 8g'</	p
8G\	8dd 8b'</	.
8GG/	8dd 8b'</	.
8G\J	8ddJ 8b'</	.
=20	=20	=20
!	!LO:TX:b:t=P:problem=diminuendolikeaccent	!
4GG/	(>4ee^< 4ccn\	.
4G\	4dd 4b\)	.
=21	=21	=21
!LO:TX:t=P:problem=mixed beam	!	!
8GG/L	8bL 8g'</	.
8G\	8dd 8b'</	.
8GG/	8dd 8b'</	.
8G\J	8ddJ 8b'</	.
=22	=22	=22
.	(<16qqeeLL 16qqccn/	.
.	16qqff#JJ 16qqdd/	.
4GG/	4ee 4ccny\)	.
4G\	4dd 4b\	.
=23:|!	=23:|!	=23:|!
*>C	*>C	*
!LO:SIC:v:s=8cn 8F#	!	!LO:DY:b:rj
8c#L 8F#\	8dd\	f
8D\	4ccn\	.
!LO:SIC:v:s=8cn 8F#	!	!
8c# 8F#\	.	.
!	!LO:TX:t=P:problem= zapis łuku niejednoznaczny	!
8D\J	(<16b/LL	.
.	16a/JJ)	.
!!LO:LB:g=original
=24	=24	=24
*2\right	*2\right	*
*tremolo	*	*
!LO:TX:t=P:global:problem= kaudy półnut z prawej strony	!	!
8BL 8G\	(<16g/LL	.
.	16b/	.
8D\	16dd/	.
.	16ee/JJ)	.
8B 8G\	8dd/L	.
8D\J	8b/J	.
=25	=25	=25
8cnL 8G\	8d/	.
8D\	4ccn\	.
8c 8G\	.	.
8D\J	16b/LL	.
.	16a/JJ	.
*Xtremolo	*	*
=26	=26	=26
4B 4G\	(<8.g/L	.
.	32f#/LL	.
.	32e/JJJ	.
4B 4G\	4d/)	.
=27	=27	=27
8cnL 8F#\	8d/	.
8D\J	4ccn/	.
*rep	*	*
8cnL 8F#\	.	.
8D\J	16b/LL	.
.	16a/JJ	.
*Xrep	*	*
=28	=28	=28
8BL 8G\	16g/LL	.
.	16b/	.
8D\J	16dd/	.
.	16ee/JJ	.
*rep	*	*
8BL 8G\	8dd/L	.
8D\J	8b/J	.
*Xrep	*	*
=29	=29	=29
8cnL 8F#\	8d/	.
8D\J	4ccn/	.
*rep	*	*
8cnL 8F#\	.	.
8D\J	16b/LL	.
.	16a/JJ	.
*Xrep	*	*
!!LO:LB:g=original
=30	=30	=30
8B 8G\	8g/	.
8r	8r	.
!	!LO:TX:t=P:problem=napis "V&colon; S&colon;" za podwójną kreską	!
!	!LO:TX:i:b:t=V&colon; S&colon;	!
4G 4GG/	4gg 4dd 4b\	.
!!LO:PB:g=original
=31||	=31||	=31||
4A 4F# 4D\	8a\L	mf
.	8ff#\J	.
.	8qff#/	.
4A 4G 4D\	8ee\L	.
.	8cc#\J	.
=32	=32	=32
4A 4F# 4D\	(>8.dd\L	.
.	32cc#\LL	.
.	32b\JJJ	.
4A 4F# 4D\	4a/)	.
=33	=33	=33
4A 4F# 4D\	8a'>\L	.
.	8ff#'>\J	.
.	8qff#/	.
4A 4G 4D\	8ee\L	.
.	8cc#\J	.
=34	=34	=34
4A 4F# 4D\	(>8.dd\L	.
.	32cc#\LL	.
.	32b\JJJ	.
4A 4F# 4D\	4a/)	.
=35	=35	=35
4A 4F# 4D\	8a'>\L	.
.	8ff#'>\J	.
.	(<8qff#/	.
4A 4G 4D\	8ee\L)	.
.	8cc#'>\J	.
!!LO:LB:g=original
=36	=36	=36
4A 4F# 4D\	(>8.dd\L	.
.	32cc#\LL	.
.	32b\JJJ	.
4A 4F# 4D\	4a/)	.
=37	=37	=37
4A 4F# 4D\	8a'>\L	.
.	8ff#'>\J	.
.	(<8qff#/	.
4A 4G 4D\	8ee\L)	.
.	8cc#'>\J	.
=38	=38	=38
4A 4F# 4D\	4dd\	.
4A 4F# 4D\	4dd\	.
=39	=39	=39
!	!	!LO:DY:b:t=for:rj
8C#/	8ee\	f
4AA/	4aa^< 4cc#\	.
8C#/	8gg 8ee\	.
=40	=40	=40
(>8qDD/	.	.
8D\)	(>16ff#\LL	.
.	16gg\	.
8AL 8F# 8D\	16ff#\	.
.	16ee\JJ	.
8A 8F# 8D\	8dd\L)	.
8AJ 8F# 8D\	8ff#'>\J	.
=41	=41	=41
.	(<8qdd#X/	.
8C#\L	8ee\L)	.
8AJ 8G 8E\	8a'>\	.
8AA\L	8b'>\	.
8AJ 8G 8E\	8cc#'>\J	.
!!LO:LB:g=original
=42	=42	=42
!LO:TX:t=P:problem=mixed beam	!	!
8DD/L	(>16dd\LL	.
.	16cc#\	.
8A\ 8F#\ 8D\	16dd\	.
.	16ee\JJ	.
8A\ 8F#\ 8D\	8ff#\L)	.
8A\J 8F#\ 8D\	8dd'>\J	.
=43	=43	=43
8C#/	8ee\	.
4AA/	4aa^< 4cc#'>\	.
8C#/	8gg'> 8ee\	.
=44	=44	=44
!LO:TX:t=P:problem=mixed beam	!	!
8DD/L	(>16ff#\LL	.
.	16gg\	.
8A\ 8F#\ 8D\	16ff#\	.
.	16ee\JJ	.
8A\ 8F#\ 8D\	8dd\L)	.
8A\J 8F#\ 8D\	8ff#'>\J	.
=45	=45	=45
.	(<8qdd#X/	.
8C#\L	8ee\L)	.
8AJ 8G 8E\	8a'>\	.
8AA\L	8b'>\	.
8AJ 8G 8E\	8cc#'>\J	.
=46	=46	=46
8A 8F# 8D\	8dd\	.
8r	8r	.
4A 4F# 4D\	4ddd^< 4ff# 4dd\	.
==	==	==
*-	*-	*-
!!!system-decoration: {(s1,s2)}
!!!RDF**kern: | = vertical stroke
!!!RDF**kern: > = above
!!!RDF**kern: < = below
!!!EED: Antoni Szymański
!!!EEV: 2021-05-05
!!!ENC: Marcin Jachim
!!!END: 2021-04-10
